Newaita-dark/apps/48/knotes.svg

<svg height="48pt" viewBox="0 0 48 48" width="48pt" xmlns="http://www.w3.org/2000/svg" xmlns:xlink="http://www.w3.org/1999/xlink"><linearGradient id="a" gradientUnits="userSpaceOnUse" x1="23.81478" x2="23.81478" y1="42.0509045" y2="44.03547050005"><stop offset="0" stop-opacity=".27451"/><stop offset="1" stop-opacity="0"/></linearGradient><linearGradient id="b"><stop offset="0" stop-opacity=".313726"/><stop offset=".222222" stop-opacity=".27451"/><stop offset="1" stop-opacity="0"/></linearGradient><radialGradient id="c" cx="450.908936" cy="189.579361" gradientTransform="matrix(.00000026 -.117199 -.210958 -.00000015 75.219128 95.392999)" gradientUnits="userSpaceOnUse" r="21.166656" xlink:href="#b"/><radialGradient id="d" cx="450.908936" cy="189.579361" gradientTransform="matrix(-.00000026 .117199 .210958 .00000015 -27.589573 -11.29122)" gradientUnits="userSpaceOnUse" r="21.166656" xlink:href="#b"/><radialGradient id="e" cx="450.908936" cy="189.579361" gradientTransform="matrix(-.00000026 -.117199 .210958 -.00000015 -27.589573 95.392999)" gradientUnits="userSpaceOnUse" r="21.166656" xlink:href="#b"/><radialGradient id="f" cx="450.908936" cy="189.579361" gradientTransform="matrix(.00000026 .117199 -.210958 .00000015 75.219126 -11.291219)" gradientUnits="userSpaceOnUse" r="21.166656" xlink:href="#b"/><linearGradient id="g"><stop offset="0" stop-color="#c5cae9"/><stop offset="1" stop-color="#9fa8da"/></linearGradient><linearGradient id="h" gradientTransform="matrix(.113024 0 0 .326118 -8.78102 50.462022)" gradientUnits="userSpaceOnUse" x1="323.513245" x2="323.513245" xlink:href="#g" y1="-141.414581" y2="-25.791676"/><linearGradient id="i" gradientUnits="userSpaceOnUse" x1="285.75" x2="285.75" xlink:href="#g" y1="-31.083334" y2="-84"/><linearGradient id="j" gradientUnits="userSpaceOnUse" x1="960" x2="960" y1="1695.118164" y2="175.118134"><stop offset="0" stop-color="#424242"/><stop offset="1" stop-color="#616161"/></linearGradient><path d="m11.90625 42.050781h23.816406v1.984375h-23.816406zm0 0" fill="url(#a)"/><path d="m35.722656 42.050781h3.96875v-1.984375h-3.96875zm0 0" fill="url(#c)"/><path d="m11.90625 42.050781h-3.96875v1.984375h3.96875zm0 0" fill="url(#d)"/><path d="m11.90625 42.050781h-3.96875v-1.984375h3.96875zm0 0" fill="url(#e)"/><path d="m35.722656 42.050781h3.96875v1.984375h-3.96875zm0 0" fill="url(#f)"/><path d="m9.921875 4.34375h27.785156c1.097657 0 1.984375.890625 1.984375 1.984375v33.738281c0 1.097656-.886718 1.984375-1.984375 1.984375h-27.785156c-1.09375 0-1.984375-.886719-1.984375-1.984375v-33.738281c0-1.09375.890625-1.984375 1.984375-1.984375zm0 0" fill="url(#h)"/><path d="m7.9375 13.273438 1.984375 2.976562.992187-.992188 1.984376 1.984376 1.984374-1.984376.992188.992188.992188-.992188 1.984374 1.984376 1.988282-1.984376.992187.992188.992188-.992188.992187.992188.992188-.992188 1.984375 2.976563 1.984375-1.984375.992187.992188 1.984375-1.984376.992188.992188 1.984375-1.984375.992187 1.984375.992188-.992188.992187 1.984376 1.984375-2.976563v-.992187zm0 0" fill-opacity=".235294"/><path d="m84.658582-84.012509 21.164646 31.746969 10.582322-10.582323 21.164646 21.164645 21.164646-21.164645 10.582322 10.582323 10.582323-10.582323 21.164646 21.164645 21.206308-21.164645 10.582323 10.582323 10.582322-10.582323 10.582323 10.582323 10.582323-10.582323 21.164646 31.746968 21.164645-21.164645 10.582323 10.582322 21.164645-21.164645 10.582323 10.582323 21.164646-21.164646 10.582322 21.164646 10.582323-10.582323 10.582323 21.164645 21.164646-31.746968v-10.582323zm0 0" fill="url(#i)" stroke="#212121" stroke-width="3" transform="matrix(.093759 0 0 .093759 0 20.158175)"/><path d="m9.921875 5.335938c-1.097656 0-1.984375.886718-1.984375 1.984374v5.953126h31.753906v-5.953126c0-1.097656-.886718-1.984374-1.984375-1.984374zm0 0" fill-opacity=".235294"/><path d="m399.961827 175.101398c-44.247746 0-79.992366 35.74462-79.992366 79.992365v239.977096h1280.035311v-239.977096c0-44.247745-35.74462-79.992365-79.992366-79.992365zm0 0" fill="url(#j)" stroke="#212121" stroke-linecap="round" stroke-linejoin="round" stroke-width="11.338583" transform="scale(.0248071)"/><path d="m9.921875 41.9375c-1.097656 0-1.984375-.882812-1.984375-1.984375v-.246094c0 1.097657.886719 1.984375 1.984375 1.984375h27.785156c1.097657 0 1.984375-.886718 1.984375-1.984375v.246094c0 1.101563-.886718 1.984375-1.984375 1.984375zm0 0" fill-opacity=".196078"/><path d="m9.921875 4.457031c-1.097656 0-1.984375.882813-1.984375 1.984375v.246094c0-1.097656.886719-1.984375 1.984375-1.984375h27.785156c1.097657 0 1.984375.886719 1.984375 1.984375v-.246094c0-1.101562-.886718-1.984375-1.984375-1.984375zm0 0" fill="#fff" fill-opacity=".392157"/><path d="m9.921875 4.203125c-1.175781 0-2.125.949219-2.125 2.125v33.738281c0 1.175782.949219 2.125 2.125 2.125h27.785156c1.175781 0 2.125-.949218 2.125-2.125v-33.738281c0-1.175781-.949219-2.125-2.125-2.125zm0 .28125h27.785156c1.023438 0 1.84375.820313 1.84375 1.84375v33.738281c0 1.023438-.820312 1.84375-1.84375 1.84375h-27.785156c-1.023437 0-1.84375-.820312-1.84375-1.84375v-33.738281c0-1.023437.820313-1.84375 1.84375-1.84375zm0 0" fill="#212121"/></svg>

<?xml version="1.0" encoding="UTF-8"?>
<svg xmlns="http://www.w3.org/2000/svg" xmlns:xlink="http://www.w3.org/1999/xlink" width="48pt" height="48pt" viewBox="0 0 48 48" version="1.1">
<defs>
<linearGradient id="linear0" gradientUnits="userSpaceOnUse" x1="254" y1="233.5" x2="254" y2="254.666672" gradientTransform="matrix(0.093759,0,0,0.093759,-0.00000572259,20.158178)">
<stop offset="0" style="stop-color:rgb(0%,0%,0%);stop-opacity:0.27451;"/>
<stop offset="1" style="stop-color:rgb(0%,0%,0%);stop-opacity:0;"/>
</linearGradient>
<radialGradient id="radial0" gradientUnits="userSpaceOnUse" cx="450.908936" cy="189.579361" fx="450.908936" fy="189.579361" r="21.166656" gradientTransform="matrix(0.000000261256,-0.117199,-0.210958,-0.000000152308,75.219128,95.392999)">
<stop offset="0" style="stop-color:rgb(0%,0%,0%);stop-opacity:0.313726;"/>
<stop offset="0.222222" style="stop-color:rgb(0%,0%,0%);stop-opacity:0.27451;"/>
<stop offset="1" style="stop-color:rgb(0%,0%,0%);stop-opacity:0;"/>
</radialGradient>
<radialGradient id="radial1" gradientUnits="userSpaceOnUse" cx="450.908936" cy="189.579361" fx="450.908936" fy="189.579361" r="21.166656" gradientTransform="matrix(-0.000000261256,0.117199,0.210958,0.000000152308,-27.589573,-11.29122)">
<stop offset="0" style="stop-color:rgb(0%,0%,0%);stop-opacity:0.313726;"/>
<stop offset="0.222222" style="stop-color:rgb(0%,0%,0%);stop-opacity:0.27451;"/>
<stop offset="1" style="stop-color:rgb(0%,0%,0%);stop-opacity:0;"/>
</radialGradient>
<radialGradient id="radial2" gradientUnits="userSpaceOnUse" cx="450.908936" cy="189.579361" fx="450.908936" fy="189.579361" r="21.166656" gradientTransform="matrix(-0.000000261256,-0.117199,0.210958,-0.000000152308,-27.589573,95.392999)">
<stop offset="0" style="stop-color:rgb(0%,0%,0%);stop-opacity:0.313726;"/>
<stop offset="0.222222" style="stop-color:rgb(0%,0%,0%);stop-opacity:0.27451;"/>
<stop offset="1" style="stop-color:rgb(0%,0%,0%);stop-opacity:0;"/>
</radialGradient>
<radialGradient id="radial3" gradientUnits="userSpaceOnUse" cx="450.908936" cy="189.579361" fx="450.908936" fy="189.579361" r="21.166656" gradientTransform="matrix(0.000000261256,0.117199,-0.210958,0.000000152308,75.219126,-11.291219)">
<stop offset="0" style="stop-color:rgb(0%,0%,0%);stop-opacity:0.313726;"/>
<stop offset="0.222222" style="stop-color:rgb(0%,0%,0%);stop-opacity:0.27451;"/>
<stop offset="1" style="stop-color:rgb(0%,0%,0%);stop-opacity:0;"/>
</radialGradient>
<linearGradient id="linear1" gradientUnits="userSpaceOnUse" x1="323.513245" y1="-141.414581" x2="323.513245" y2="-25.791676" gradientTransform="matrix(0.113024,0,0,0.326118,-8.78102,50.462022)">
<stop offset="0" style="stop-color:rgb(77.254903%,79.215688%,91.37255%);stop-opacity:1;"/>
<stop offset="1" style="stop-color:rgb(62.352943%,65.882355%,85.490197%);stop-opacity:1;"/>
</linearGradient>
<linearGradient id="linear2" gradientUnits="userSpaceOnUse" x1="285.75" y1="-31.083334" x2="285.75" y2="-84" gradientTransform="matrix(1,0,0,1,0,0)">
<stop offset="0" style="stop-color:rgb(77.254903%,79.215688%,91.37255%);stop-opacity:1;"/>
<stop offset="1" style="stop-color:rgb(62.352943%,65.882355%,85.490197%);stop-opacity:1;"/>
</linearGradient>
<linearGradient id="linear3" gradientUnits="userSpaceOnUse" x1="960" y1="1695.118164" x2="960" y2="175.118134" gradientTransform="matrix(1,0,0,1,0,-0)">
<stop offset="0" style="stop-color:rgb(25.882354%,25.882354%,25.882354%);stop-opacity:1;"/>
<stop offset="1" style="stop-color:rgb(38.039216%,38.039216%,38.039216%);stop-opacity:1;"/>
</linearGradient>
</defs>
<g id="surface1">
<path style=" stroke:none;fill-rule:nonzero;fill:url(#linear0);" d="M 11.90625 42.050781 L 35.722656 42.050781 L 35.722656 44.035156 L 11.90625 44.035156 Z M 11.90625 42.050781 "/>
<path style=" stroke:none;fill-rule:nonzero;fill:url(#radial0);" d="M 35.722656 42.050781 L 39.691406 42.050781 L 39.691406 40.066406 L 35.722656 40.066406 Z M 35.722656 42.050781 "/>
<path style=" stroke:none;fill-rule:nonzero;fill:url(#radial1);" d="M 11.90625 42.050781 L 7.9375 42.050781 L 7.9375 44.035156 L 11.90625 44.035156 Z M 11.90625 42.050781 "/>
<path style=" stroke:none;fill-rule:nonzero;fill:url(#radial2);" d="M 11.90625 42.050781 L 7.9375 42.050781 L 7.9375 40.066406 L 11.90625 40.066406 Z M 11.90625 42.050781 "/>
<path style=" stroke:none;fill-rule:nonzero;fill:url(#radial3);" d="M 35.722656 42.050781 L 39.691406 42.050781 L 39.691406 44.035156 L 35.722656 44.035156 Z M 35.722656 42.050781 "/>
<path style=" stroke:none;fill-rule:nonzero;fill:url(#linear1);" d="M 9.921875 4.34375 L 37.707031 4.34375 C 38.804688 4.34375 39.691406 5.234375 39.691406 6.328125 L 39.691406 40.066406 C 39.691406 41.164062 38.804688 42.050781 37.707031 42.050781 L 9.921875 42.050781 C 8.828125 42.050781 7.9375 41.164062 7.9375 40.066406 L 7.9375 6.328125 C 7.9375 5.234375 8.828125 4.34375 9.921875 4.34375 Z M 9.921875 4.34375 "/>
<path style=" stroke:none;fill-rule:nonzero;fill:rgb(0%,0%,0%);fill-opacity:0.235294;" d="M 7.9375 13.273438 L 9.921875 16.25 L 10.914062 15.257812 L 12.898438 17.242188 L 14.882812 15.257812 L 15.875 16.25 L 16.867188 15.257812 L 18.851562 17.242188 L 20.839844 15.257812 L 21.832031 16.25 L 22.824219 15.257812 L 23.816406 16.25 L 24.808594 15.257812 L 26.792969 18.234375 L 28.777344 16.25 L 29.769531 17.242188 L 31.753906 15.257812 L 32.746094 16.25 L 34.730469 14.265625 L 35.722656 16.25 L 36.714844 15.257812 L 37.707031 17.242188 L 39.691406 14.265625 L 39.691406 13.273438 Z M 7.9375 13.273438 "/>
<path style="fill-rule:nonzero;fill:url(#linear2);stroke-width:3;stroke-linecap:butt;stroke-linejoin:miter;stroke:rgb(12.941177%,12.941177%,12.941177%);stroke-opacity:1;stroke-miterlimit:4;" d="M 84.658582 -84.012509 L 105.823228 -52.26554 L 116.40555 -62.847863 L 137.570196 -41.683218 L 158.734842 -62.847863 L 169.317164 -52.26554 L 179.899487 -62.847863 L 201.064133 -41.683218 L 222.270441 -62.847863 L 232.852764 -52.26554 L 243.435086 -62.847863 L 254.017409 -52.26554 L 264.599732 -62.847863 L 285.764378 -31.100895 L 306.929023 -52.26554 L 317.511346 -41.683218 L 338.675991 -62.847863 L 349.258314 -52.26554 L 370.42296 -73.430186 L 381.005282 -52.26554 L 391.587605 -62.847863 L 402.169928 -41.683218 L 423.334574 -73.430186 L 423.334574 -84.012509 Z M 84.658582 -84.012509 " transform="matrix(0.093759,0,0,0.093759,0,20.158175)"/>
<path style=" stroke:none;fill-rule:nonzero;fill:rgb(0%,0%,0%);fill-opacity:0.235294;" d="M 9.921875 5.335938 C 8.824219 5.335938 7.9375 6.222656 7.9375 7.320312 L 7.9375 13.273438 L 39.691406 13.273438 L 39.691406 7.320312 C 39.691406 6.222656 38.804688 5.335938 37.707031 5.335938 Z M 9.921875 5.335938 "/>
<path style="fill-rule:nonzero;fill:url(#linear3);stroke-width:11.338583;stroke-linecap:round;stroke-linejoin:round;stroke:rgb(12.941177%,12.941177%,12.941177%);stroke-opacity:1;stroke-miterlimit:4;" d="M 399.961827 175.101398 C 355.714081 175.101398 319.969461 210.846018 319.969461 255.093763 L 319.969461 495.070859 L 1600.004772 495.070859 L 1600.004772 255.093763 C 1600.004772 210.846018 1564.260152 175.101398 1520.012406 175.101398 Z M 399.961827 175.101398 " transform="matrix(0.0248071,0,0,0.0248071,0,0)"/>
<path style=" stroke:none;fill-rule:nonzero;fill:rgb(0%,0%,0%);fill-opacity:0.196078;" d="M 9.921875 41.9375 C 8.824219 41.9375 7.9375 41.054688 7.9375 39.953125 L 7.9375 39.707031 C 7.9375 40.804688 8.824219 41.691406 9.921875 41.691406 L 37.707031 41.691406 C 38.804688 41.691406 39.691406 40.804688 39.691406 39.707031 L 39.691406 39.953125 C 39.691406 41.054688 38.804688 41.9375 37.707031 41.9375 Z M 9.921875 41.9375 "/>
<path style=" stroke:none;fill-rule:nonzero;fill:rgb(100%,100%,100%);fill-opacity:0.392157;" d="M 9.921875 4.457031 C 8.824219 4.457031 7.9375 5.339844 7.9375 6.441406 L 7.9375 6.6875 C 7.9375 5.589844 8.824219 4.703125 9.921875 4.703125 L 37.707031 4.703125 C 38.804688 4.703125 39.691406 5.589844 39.691406 6.6875 L 39.691406 6.441406 C 39.691406 5.339844 38.804688 4.457031 37.707031 4.457031 Z M 9.921875 4.457031 "/>
<path style=" stroke:none;fill-rule:nonzero;fill:rgb(12.941177%,12.941177%,12.941177%);fill-opacity:1;" d="M 9.921875 4.203125 C 8.746094 4.203125 7.796875 5.152344 7.796875 6.328125 L 7.796875 40.066406 C 7.796875 41.242188 8.746094 42.191406 9.921875 42.191406 L 37.707031 42.191406 C 38.882812 42.191406 39.832031 41.242188 39.832031 40.066406 L 39.832031 6.328125 C 39.832031 5.152344 38.882812 4.203125 37.707031 4.203125 Z M 9.921875 4.484375 L 37.707031 4.484375 C 38.730469 4.484375 39.550781 5.304688 39.550781 6.328125 L 39.550781 40.066406 C 39.550781 41.089844 38.730469 41.910156 37.707031 41.910156 L 9.921875 41.910156 C 8.898438 41.910156 8.078125 41.089844 8.078125 40.066406 L 8.078125 6.328125 C 8.078125 5.304688 8.898438 4.484375 9.921875 4.484375 Z M 9.921875 4.484375 "/>
</g>
</svg>
